packages/astro-components-stencil/src/icons/assignment-returned.svg

<svg xmlns="http://www.w3.org/2000/svg" viewBox="0 0 24 24"><g xmlns="http://www.w3.org/2000/svg" id="assignment-returned" fill-rule="nonzero">
            <path d="M19 3h-4.18C14.4 1.84 13.3 1 12 1c-1.3 0-2.4.84-2.82 2H5c-1.1 0-2 .9-2 2v14c0 1.1.9 2 2 2h14c1.1 0 2-.9 2-2V5c0-1.1-.9-2-2-2zm-7 0c.55 0 1 .45 1 1s-.45 1-1 1-1-.45-1-1 .45-1 1-1zm-.35 14.65L7 13h3V9h4v4h3l-4.65 4.65c-.19.19-.51.19-.7 0z"/>
        </g></svg>

<svg width="24" height="24" viewBox="0 0 24 24" fill="none" xmlns="http://www.w3.org/2000/svg">
<path fill-rule="evenodd" clip-rule="evenodd" d="M19 3H14.82C14.4 1.84 13.3 1 12 1C10.7 1 9.6 1.84 9.18 3H5C3.9 3 3 3.9 3 5V19C3 20.1 3.9 21 5 21H19C20.1 21 21 20.1 21 19V5C21 3.9 20.1 3 19 3ZM12 3C12.55 3 13 3.45 13 4C13 4.55 12.55 5 12 5C11.45 5 11 4.55 11 4C11 3.45 11.45 3 12 3ZM7 13L11.65 17.65C11.84 17.84 12.16 17.84 12.35 17.65L17 13H14V9H10V13H7Z" fill="black"/>
</svg>
